src/lib/packages/icons/src/assets/filled/shopping-cart-minus.svg

<svg width="24" height="24" viewBox="0 0 24 24" fill="none" xmlns="http://www.w3.org/2000/svg">
<path d="M9.021 22.25C8.332 22.25 7.76599 21.69 7.76599 21C7.76599 20.31 8.32099 19.75 9.01099 19.75H9.021C9.711 19.75 10.271 20.31 10.271 21C10.271 21.69 9.711 22.25 9.021 22.25ZM18.271 21C18.271 20.31 17.711 19.75 17.021 19.75H17.011C16.321 19.75 15.766 20.31 15.766 21C15.766 21.69 16.331 22.25 17.021 22.25C17.711 22.25 18.271 21.69 18.271 21ZM20.9659 8.36L19.9561 14.54C19.6961 15.96 19.106 17 17.006 17H8.73596C7.73596 17 6.89598 16.27 6.75598 15.28L5.255 4.832C5.165 4.202 4.64499 3.75 4.01599 3.75H3.75598C3.34198 3.75 3.00598 3.414 3.00598 3C3.00598 2.586 3.34198 2.25 3.75598 2.25H4.01599C5.39899 2.25 6.54401 3.244 6.73901 4.614L6.948 6H19.007C20.246 6 21.1959 7.13 20.9659 8.36ZM16.25 11.5C16.25 11.086 15.914 10.75 15.5 10.75H11.5C11.086 10.75 10.75 11.086 10.75 11.5C10.75 11.914 11.086 12.25 11.5 12.25H15.5C15.914 12.25 16.25 11.914 16.25 11.5Z" fill="currentColor"/>
</svg>

<svg xmlns="http://www.w3.org/2000/svg" width="24" height="24" fill="none"><path fill="currentColor" d="M9.021 22.25c-.689 0-1.255-.56-1.255-1.25s.555-1.25 1.245-1.25h.01a1.25 1.25 0 0 1 0 2.5Zm9.25-1.25c0-.69-.56-1.25-1.25-1.25h-.01c-.69 0-1.245.56-1.245 1.25s.565 1.25 1.255 1.25 1.25-.56 1.25-1.25Zm2.695-12.64-1.01 6.18c-.26 1.42-.85 2.46-2.95 2.46h-8.27c-1 0-1.84-.73-1.98-1.72L5.255 4.832A1.243 1.243 0 0 0 4.016 3.75h-.26a.75.75 0 0 1 0-1.5h.26a2.73 2.73 0 0 1 2.723 2.364L6.948 6h12.059a1.996 1.996 0 0 1 1.959 2.36ZM16.25 11.5a.75.75 0 0 0-.75-.75h-4a.75.75 0 0 0 0 1.5h4a.75.75 0 0 0 .75-.75Z"/></svg>
